X:505
T: Wasser und Wein (208), S. 393
N: T0393
O: Luxemburg
S: Singendes Volk, Esch-Alzette, 1937 posth.]
N: Heffingen, hhh Johann Trierweiler, 10.6.1935
R: Rtsel-, Wunsch-, Wettlied]
M: 6/8
L: 1/8
K: F
C | FFFFFG | FFEF2
C | FFFF2G | F2EF2
C | BBBBcc | A2FA2
A | FFFGCC | C3F2

@@@ Tune index: 8559
